database-sync.svg

<svg fill="currentColor" viewBox="0 0 24 24"><path d="M19 12v1.5a4 4 0 0 1 4 4c0 .82-.25 1.58-.67 2.21l-1.09-1.09c.17-.34.26-.72.26-1.12A2.5 2.5 0 0 0 19 15v1.5l-2.25-2.25zm0 11v-1.5a4 4 0 0 1-4-4c0-.82.25-1.58.67-2.21l1.09 1.09c-.17.34-.26.72-.26 1.12A2.5 2.5 0 0 0 19 20v-1.5l2.25 2.25zM12 3c4.42 0 8 1.79 8 4s-3.58 4-8 4-8-1.79-8-4 3.58-4 8-4M4 9c0 2.21 3.58 4 8 4 1.11 0 2.17-.11 3.14-.32-.95.86-1.64 1.99-1.96 3.28L12 16c-4.42 0-8-1.79-8-4zm16 0v2h-.5l-.6.03c.7-.6 1.1-1.29 1.1-2.03M4 14c0 2.21 3.58 4 8 4l1-.03c.09 1.06.42 2.03.95 2.91L12 21c-4.42 0-8-1.79-8-4z"/></svg>

<svg  viewBox="0 0 24 24" fill="currentColor"><path  d="M19,12V13.5A4,4 0 0,1 23,17.5C23,18.32 22.75,19.08 22.33,19.71L21.24,18.62C21.41,18.28 21.5,17.9 21.5,17.5A2.5,2.5 0 0,0 19,15V16.5L16.75,14.25L19,12M19,23V21.5A4,4 0 0,1 15,17.5C15,16.68 15.25,15.92 15.67,15.29L16.76,16.38C16.59,16.72 16.5,17.1 16.5,17.5A2.5,2.5 0 0,0 19,20V18.5L21.25,20.75L19,23M12,3C16.42,3 20,4.79 20,7C20,9.21 16.42,11 12,11C7.58,11 4,9.21 4,7C4,4.79 7.58,3 12,3M4,9C4,11.21 7.58,13 12,13C13.11,13 14.17,12.89 15.14,12.68C14.19,13.54 13.5,14.67 13.18,15.96L12,16C7.58,16 4,14.21 4,12V9M20,9V11H19.5L18.9,11.03C19.6,10.43 20,9.74 20,9M4,14C4,16.21 7.58,18 12,18L13,17.97C13.09,19.03 13.42,20 13.95,20.88L12,21C7.58,21 4,19.21 4,17V14Z"/></svg>
